; HEADER_BLOCK_START
; generated by ElegooSlicer 1.3.2.9 on 2026-04-14 at 13:30:33
; total layer number: 100
; filament_density: 1.1
; filament_diameter: 1.75
; max_z_height: 20.00
; HEADER_BLOCK_END



; THUMBNAIL_BLOCK_START

;
; THUMBNAIL_BLOCK_END

; external perimeters extrusion width = 0.42mm
; perimeters extrusion width = 0.45mm
; infill extrusion width = 0.45mm
; solid infill extrusion width = 0.42mm
; top infill extrusion width = 0.42mm
; first layer extrusion width = 0.50mm

; EXECUTABLE_BLOCK_START
EXCLUDE_OBJECT_DEFINE NAME=universal-wall-hook.stl_id_0_copy_0 CENTER=128,128 POLYGON=[[112.621,102.725],[112.624,102.454],[112.631,102.184],[112.643,101.914],[112.659,101.644],[112.68,101.374],[112.706,101.105],[112.737,100.837],[112.772,100.568],[112.812,100.301],[112.857,100.034],[112.906,99.7685],[112.96,99.5036],[113.018,99.2396],[113.081,98.9767],[113.149,98.7149],[113.221,98.4543],[113.298,98.1951],[113.379,97.9372],[113.465,97.6807],[113.555,97.4259],[113.65,97.1726],[113.749,96.921],[113.852,96.6712],[113.96,96.4232],[114.072,96.1771],[114.188,95.9331],[114.309,95.6911],[114.434,95.4512],[114.563,95.2135],[114.696,94.9782],[114.833,94.7452],[114.974,94.5146],[115.119,94.2865],[115.269,94.061],[115.422,93.8381],[115.579,93.618],[115.739,93.4005],[115.904,93.186],[116.072,92.9743],[116.244,92.7656],[116.42,92.56],[116.599,92.3574],[116.781,92.158],[116.967,91.9618],[117.157,91.7688],[117.349,91.5793],[117.546,91.3931],[117.745,91.2103],[117.947,91.031],[118.153,90.8554],[118.361,90.6833],[118.573,90.5149],[118.787,90.3502],[119.005,90.1892],[119.225,90.0321],[119.447,89.8788],[119.673,89.7295],[119.901,89.5841],[120.131,89.4427],[120.364,89.3054],[120.599,89.1721],[120.837,89.0429],[121.077,88.9179],[121.319,88.7972],[121.562,88.6806],[121.808,88.5683],[122.056,88.4604],[122.306,88.3568],[122.558,88.2575],[122.811,88.1627],[123.066,88.0722],[123.322,87.9863],[123.58,87.9048],[123.839,87.8278],[124.099,87.7554],[124.361,87.6875],[124.624,87.6242],[124.888,87.5655],[125.153,87.5114],[125.419,87.462],[125.685,87.4171],[125.953,87.377],[126.221,87.3415],[126.489,87.3107],[126.759,87.2846],[127.028,87.2631],[127.298,87.2464],[127.568,87.2344],[127.838,87.2271],[128.109,87.2245],[128.379,87.2267],[128.649,87.2335],[128.92,87.2451],[129.189,87.2614],[129.459,87.2824],[129.728,87.3081],[129.997,87.3384],[130.265,87.3735],[130.532,87.4132],[130.799,87.4576],[131.065,87.5066],[131.33,87.5603],[131.594,87.6186],[131.857,87.6814],[132.119,87.7489],[132.379,87.8209],[132.639,87.8974],[132.897,87.9785],[133.153,88.064],[133.408,88.154],[133.662,88.2485],[133.913,88.3473],[134.163,88.4505],[134.411,88.5581],[134.657,88.67],[134.901,88.7861],[135.144,88.9065],[135.384,89.0311],[135.621,89.1599],[135.857,89.2928],[136.09,89.4297],[136.321,89.5707],[136.549,89.7158],[136.774,89.8648],[136.997,90.0177],[137.218,90.1744],[137.435,90.335],[137.65,90.4993],[137.862,90.6674],[138.071,90.8392],[138.276,91.0145],[138.479,91.1934],[138.679,91.3759],[138.875,91.5617],[139.068,91.751],[139.258,91.9436],[139.444,92.1395],[139.627,92.3387],[139.807,92.5409],[139.982,92.7463],[140.155,92.9547],[140.323,93.1661],[140.488,93.3804],[140.649,93.5976],[140.807,93.8175],[140.96,94.0401],[141.11,94.2654],[141.255,94.4932],[141.397,94.7236],[141.534,94.9564],[141.668,95.1915],[141.797,95.4289],[141.922,95.6686],[142.043,95.9104],[142.16,96.1543],[142.272,96.4002],[142.381,96.648],[142.484,96.8976],[142.584,97.1491],[142.679,97.4022],[142.77,97.6569],[142.856,97.9132],[142.937,98.171],[143.015,98.4301],[143.087,98.6905],[143.155,98.9522],[143.219,99.215],[143.278,99.4789],[143.332,99.7438],[143.34,99.7863],[143.347,99.8289],[143.354,99.8717],[143.359,99.9145],[143.364,99.9575],[143.369,100.001],[143.372,100.044],[143.375,100.087],[143.377,100.13],[143.378,100.173],[143.379,100.216],[143.378,100.26],[143.377,100.303],[141.706,165.633],[141.705,165.676],[141.703,165.719],[141.7,165.762],[141.696,165.805],[141.691,165.848],[141.686,165.891],[141.68,165.934],[141.674,165.977],[141.666,166.019],[141.658,166.061],[141.649,166.104],[141.64,166.146],[141.629,166.188],[141.618,166.229],[141.606,166.271],[141.594,166.312],[141.581,166.353],[141.567,166.394],[141.552,166.435],[141.537,166.475],[141.521,166.515],[141.504,166.555],[141.487,166.594],[141.469,166.634],[141.45,166.673],[141.431,166.711],[141.411,166.749],[141.39,166.787],[141.369,166.825],[141.347,166.862],[141.324,166.899],[141.301,166.935],[141.277,166.971],[141.252,167.006],[141.227,167.041],[141.201,167.076],[141.175,167.11],[141.148,167.144],[141.121,167.177],[141.093,167.21],[141.064,167.242],[141.035,167.274],[141.005,167.305],[140.975,167.336],[140.268,168.043],[140.237,168.074],[140.206,168.103],[140.174,168.132],[140.142,168.161],[140.109,168.189],[140.076,168.217],[140.042,168.244],[140.008,168.27],[139.973,168.296],[139.938,168.321],[139.902,168.345],[139.866,168.369],[139.83,168.392],[139.793,168.415],[139.756,168.437],[139.719,168.458],[139.681,168.479],[139.643,168.499],[139.604,168.519],[139.565,168.537],[139.526,168.555],[139.487,168.573],[139.447,168.589],[139.407,168.605],[139.366,168.621],[139.326,168.635],[139.285,168.649],[139.244,168.662],[139.202,168.675],[139.161,168.687],[139.119,168.698],[139.077,168.708],[139.035,168.718],[138.993,168.726],[138.951,168.735],[138.908,168.742],[138.866,168.749],[138.823,168.755],[138.78,168.76],[138.737,168.764],[138.694,168.768],[138.651,168.771],[138.608,168.773],[138.565,168.775],[138.522,168.775],[138.478,168.775],[138.435,168.775],[138.392,168.773],[138.349,168.771],[138.306,168.768],[138.263,168.764],[138.22,168.76],[138.177,168.755],[138.135,168.749],[138.092,168.742],[138.049,168.735],[138.007,168.726],[137.965,168.718],[137.923,168.708],[137.881,168.698],[137.839,168.687],[137.798,168.675],[137.756,168.662],[137.715,168.649],[137.674,168.635],[137.634,168.621],[137.593,168.605],[137.553,168.589],[137.513,168.573],[137.474,168.555],[137.435,168.537],[137.396,168.519],[137.357,168.499],[137.319,168.479],[137.281,168.458],[137.244,168.437],[137.207,168.415],[137.17,168.392],[137.134,168.369],[137.098,168.345],[137.062,168.321],[137.027,168.296],[136.992,168.27],[136.958,168.244],[136.924,168.217],[136.891,168.189],[136.858,168.161],[136.826,168.132],[136.794,168.103],[136.763,168.074],[136.732,168.043],[117.893,149.204],[117.674,148.981],[117.458,148.754],[117.246,148.523],[117.039,148.288],[116.835,148.05],[116.636,147.808],[116.441,147.563],[116.25,147.315],[116.063,147.063],[115.881,146.808],[115.704,146.55],[115.531,146.289],[115.362,146.024],[115.198,145.757],[115.039,145.488],[114.885,145.215],[114.735,144.94],[114.59,144.662],[114.45,144.382],[114.315,144.099],[114.185,143.814],[114.059,143.527],[113.939,143.238],[113.824,142.946],[113.714,142.653],[113.609,142.358],[113.509,142.061],[113.415,141.762],[113.325,141.462],[113.241,141.16],[113.162,140.857],[113.089,140.552],[113.02,140.246],[112.958,139.939],[112.9,139.631],[112.848,139.322],[112.801,139.013],[112.759,138.702],[112.723,138.391],[112.693,138.079],[112.668,137.767],[112.648,137.454],[112.634,137.141],[112.625,136.828],[112.621,136.515],[112.621,102.725]]
M73 P0 R12
M106 S0
M106 P2 S0
;TYPE:Custom
;;===== date: 20251011 =====================
;printer_model:Elegoo Centauri Carbon
;initial_filament:ABS
;curr_bed_type:Textured PEI Plate
;bed_level_temp:90
M400 ; wait for buffer to clear
M220 S100 ;Set the feed speed to 100%
M221 S100 ;Set the flow rate to 100%
M104 S140
M140 S90
G90
G28 ;home
M729 ;Clean Nozzle
M190 S90


;=============turn on fans to prevent PLA jamming=================


;enable_pressure_advance:false
;This value is called if pressure advance is enabled

M204 S5000 ;Call exterior wall print acceleration


G1 X128 Y-1.2 F20000
G1 Z0.3 F900
M109 S270
M83
G92 E0 ;Reset Extruder
G1 F6000 
G1 X-1.2 E10.156 ;Draw the first line
G1 Y98.8 E7.934
G1 X-0.5 Y100 E0.1
G1 Y-0.3 E7.934
G1 X78 E6.284
G1 F1440 
G1 X98 E2
G1 F7200 
G1 X118 E2
G1 F1440 
G1 X138 E2
G1 F7200 
G1 X158 E2
G1 F7200 
G1 X178 E2
;End PA test.


G3 I-1 J0 Z0.6 F1200.0 ;Move to side a little
G1 F20000
G92 E0 ;Reset Extruder
;LAYER_COUNT:100
;LAYER:0
G90
G21
M83 ; use relative distances for extrusion
; Filament start gcode
M106 P2 S0
;LAYER_CHANGE
;Z:0.2
;HEIGHT:0.2
;BEFORE_LAYER_CHANGE
;0.2
G92 E0

G1 E-.8 F1800
;LAYER:1

;_SET_FAN_SPEED_CHANGING_LAYER
SET_VELOCITY_LIMIT ACCEL=500
EXCLUDE_OBJECT_START NAME=universal-wall-hook.stl_id_0_copy_0
G1 X120.117 Y95.243 F30000
G1 Z.6
M73 P1 R12
G1 Z.2
G1 E.8 F1800
;TYPE:Inner wall
;WIDTH:0.5
G1 F3000
G1 X120.111 Y95.256 E.00054
G2 X117.164 Y102.717 I8.013 J7.477 E.29671
G1 X117.164 Y136.517 E1.22115
G2 X121.101 Y145.987 I13.556 J-.082 E.37997
G1 X139.932 Y164.819 E.96217
G3 X139.971 Y166.278 I-.735 J.75 E.05832
G1 X139.234 Y167.016 E.03767
G3 X137.773 Y167.023 I-.734 J-.742 E.05847
G1 X118.926 Y148.177 E.96295
G3 X114.078 Y136.509 I11.726 J-11.713 E.46832
G1 X114.081 Y102.48 E1.22944
G3 X128.598 Y88.69 I14.046 J.25 E.80522
G3 X141.919 Y100.167 I-.473 J14.019 E.68661
G3 X140.939 Y101.265 I-1.041 J.057 E.05905
G3 X139.791 Y101.265 I-.568 J-15.452 E.04148
G3 X138.857 Y100.514 I.068 J-1.042 E.04612
G2 X120.652 Y94.716 I-10.733 J2.22 E.83829
G1 X120.145 Y95.215 E.02567
G1 X120.462 Y95.543 F30000
;TYPE:Outer wall
G1 F3000
G1 X120.445 Y95.568 E.00108
G2 X117.621 Y102.721 I7.679 J7.166 E.28447
G1 X117.621 Y136.513 E1.22084
G2 X121.427 Y145.667 I13.096 J-.076 E.36731
G1 X140.262 Y164.502 E.96239
G3 X140.304 Y166.591 I-1.069 J1.066 E.08335
G1 X139.546 Y167.35 E.03876
G3 X137.457 Y167.353 I-1.046 J-1.077 E.0835
G1 X118.602 Y148.498 E.96338
G3 X113.621 Y136.511 I12.051 J-12.035 E.48113
G1 X113.624 Y102.472 E1.22982
M73 P2 R12
G3 X128.615 Y88.233 I14.503 J.258 E.83149
G3 X142.376 Y100.142 I-.469 J14.447 E.7112
G3 X140.959 Y101.722 I-1.498 J.082 E.08517
G3 X139.755 Y101.721 I-.584 J-16.207 E.04351
G3 X138.417 Y100.639 I.106 J-1.5 E.06619
G2 X120.963 Y95.05 I-10.292 J2.095 E.80457
G1 X120.491 Y95.515 E.02395
G1 E-.728 F1800
;WIPE_START
G1 F30000
G1 X120.445 Y95.568 E-.00418
G1 X119.961 Y96.117 E-.04396
G1 X119.735 Y96.406 E-.02199
G1 X119.717 Y96.432 E-.00188
;WIPE_END
G1 X127.322 Y95.783 Z.6
G1 X139.395 Y94.754 Z.6
G1 Z.2
G1 E.8 F1800
;TYPE:Bottom surface
;WIDTH:0.501453
G1 F6300
G1 X137.712 Y93.071 E.08625
G2 X134.963 Y90.971 I-9.785 J9.957 E.12569
G1 X139.876 Y95.883 E.25179
G3 X140.56 Y97.216 I-11.319 J6.654 E.05433
G1 X133.638 Y90.293 E.35483
G2 X132.555 Y89.859 I-4.094 J8.638 E.04231
G1 X140.987 Y98.292 E.43222
G3 X141.267 Y99.22 I-10.649 J3.719 E.03516
G1 X131.63 Y89.583 E.49399
G2 X130.782 Y89.384 I-1.85 J5.978 E.03157
G1 X141.462 Y100.064 E.54742
G3 X141.348 Y100.598 I-.646 J.141 E.02041
G1 X138.213 Y97.462 E.1607
G3 X138.763 Y98.661 I-12.289 J6.364 E.0478
G1 X140.929 Y100.827 E.11105
G1 X140.284 Y100.831 E.02339
G1 X139.076 Y99.622 E.06193
G1 X139.291 Y100.434 E.03042
G1 X139.358 Y100.553 E.00498
G1 X139.841 Y101.036 E.02475
G1 E-.728 F1800
;WIPE_START
G1 F30000
G1 X139.358 Y100.553 E-.04097
G1 X139.291 Y100.434 E-.00824
G1 X139.193 Y100.066 E-.02278
;WIPE_END
G1 X134.555 Y94.006 Z.6
G1 X133.898 Y93.148 Z.6
G1 Z.2
G1 E.8 F1800
G1 F6300
G1 X129.996 Y89.246 E.2
G2 X129.274 Y89.172 I-1.07 J6.858 E.02634
G1 X132.194 Y92.092 E.14968
G1 X131.991 Y92.01 E.00794
G1 X131.222 Y91.769 E.02919
G1 X128.577 Y89.124 E.13558
G1 X127.924 Y89.119 E.02369
G1 X130.371 Y91.566 E.12543
G2 X129.591 Y91.434 I-1.226 J4.891 E.0287
G1 X127.3 Y89.144 E.11741
G2 X126.706 Y89.198 I.148 J4.886 E.02163
G1 X128.867 Y91.359 E.11074
G1 X128.195 Y91.335 E.02436
G1 X126.124 Y89.265 E.10614
G2 X125.573 Y89.362 I.663 J5.4 E.02031
G1 X127.563 Y91.352 E.10204
G2 X126.962 Y91.399 I.032 J4.328 E.0219
G1 X125.039 Y89.476 E.09857
G2 X124.522 Y89.608 I.702 J3.807 E.01933
G1 X126.385 Y91.47 E.09544
G1 X125.833 Y91.568 E.02029
M73 P3 R12
G1 X124.019 Y89.753 E.09301
G2 X123.532 Y89.915 I1.297 J4.729 E.0186
G1 X125.31 Y91.692 E.09112
G2 X124.801 Y91.833 I.749 J3.705 E.01912
G1 X123.064 Y90.095 E.08904
G2 X122.609 Y90.289 I1.358 J3.828 E.01793
G1 X124.312 Y91.992 E.08728
G2 X123.846 Y92.174 I1.045 J3.366 E.01816
G1 X122.167 Y90.495 E.08603
G2 X121.734 Y90.711 I1.839 J4.242 E.01754
G1 X123.389 Y92.366 E.08484
G1 X122.957 Y92.582 E.01752
G1 X121.318 Y90.943 E.08399
G1 X120.91 Y91.184 E.01716
G1 X122.529 Y92.803 E.08298
G1 X122.124 Y93.046 E.01713
G1 X120.523 Y91.445 E.08207
G1 X120.136 Y91.706 E.01693
G1 X121.731 Y93.301 E.08174
G1 X121.349 Y93.568 E.01687
G1 X119.768 Y91.987 E.08105
G2 X119.407 Y92.275 I3.131 J4.299 E.01673
G1 X120.986 Y93.853 E.08092
G2 X120.629 Y94.145 I1.906 J2.7 E.01672
G1 X119.06 Y92.576 E.0804
G1 X118.722 Y92.886 E.01663
G1 X120.293 Y94.458 E.08054
G2 X119.965 Y94.778 I2.126 J2.508 E.01663
G1 X118.395 Y93.208 E.08045
G2 X118.081 Y93.542 I4.394 J4.46 E.01663
G1 X119.652 Y95.113 E.08055
G2 X119.353 Y95.462 I2.346 J2.317 E.01668
G1 X117.778 Y93.888 E.08071
G2 X117.483 Y94.241 I3.269 J3.024 E.01669
G1 X119.063 Y95.821 E.08095
G2 X118.792 Y96.199 I2.569 J2.121 E.01686
G1 X117.202 Y94.609 E.08152
G2 X116.93 Y94.985 I4.188 J3.308 E.01684
G1 X118.529 Y96.584 E.08195
G1 X118.286 Y96.989 E.01713
G1 X116.675 Y95.378 E.08257
G1 X116.426 Y95.778 E.01706
G1 X118.054 Y97.406 E.08346
G1 X117.835 Y97.836 E.01747
G1 X116.19 Y96.19 E.08434
G2 X115.964 Y96.613 I4.706 J2.787 E.01737
G1 X117.637 Y98.286 E.08578
G2 X117.449 Y98.747 I3.684 J1.771 E.01804
G1 X115.753 Y97.051 E.08693
G2 X115.557 Y97.502 I5.216 J2.541 E.01786
G1 X117.281 Y99.227 E.08837
G1 X117.136 Y99.731 E.019
G1 X115.374 Y97.968 E.09035
G2 X115.21 Y98.452 I3.924 J1.599 E.01855
G1 X117.008 Y100.251 E.09218
G2 X116.897 Y100.788 I3.787 J1.064 E.0199
G1 X115.051 Y98.942 E.09463
G2 X114.919 Y99.459 I3.63 J1.198 E.01935
G1 X116.817 Y101.357 E.09727
G2 X116.763 Y101.951 I4.224 J.684 E.02165
G1 X114.794 Y99.982 E.10091
G1 X114.694 Y100.53 E.02019
G1 X116.737 Y102.573 E.10472
G1 X116.736 Y103.222 E.0235
G1 X114.618 Y101.103 E.10859
G2 X114.557 Y101.69 I4.228 J.736 E.02142
G1 X116.736 Y103.87 E.11171
G1 X116.736 Y104.518 E.0235
G1 X114.525 Y102.307 E.11336
G2 X114.515 Y102.945 I6.1 J.412 E.02316
G1 X116.736 Y105.167 E.11385
G1 X116.736 Y105.815 E.0235
G1 X114.515 Y103.594 E.11384
G1 X114.515 Y104.242 E.0235
G1 X116.736 Y106.463 E.11384
G1 X116.736 Y107.112 E.0235
G1 X114.515 Y104.891 E.11384
G1 X114.515 Y105.539 E.0235
G1 X116.736 Y107.76 E.11383
G1 X116.735 Y108.408 E.0235
G1 X114.515 Y106.187 E.11383
G1 X114.515 Y106.836 E.0235
G1 X116.735 Y109.057 E.11382
G1 X116.735 Y109.705 E.0235
G1 X114.515 Y107.484 E.11382
G1 X114.515 Y108.133 E.0235
G1 X116.735 Y110.353 E.11382
G1 X116.735 Y111.002 E.0235
G1 X114.514 Y108.781 E.11381
G1 X114.514 Y109.43 E.0235
G1 X116.735 Y111.65 E.11381
G1 X116.735 Y112.298 E.0235
G1 X114.514 Y110.078 E.1138
G1 X114.514 Y110.726 E.0235
M73 P4 R12
G1 X116.735 Y112.947 E.1138
G1 X116.734 Y113.595 E.0235
G1 X114.514 Y111.375 E.11379
G1 X114.514 Y112.023 E.0235
G1 X116.734 Y114.243 E.11379
G1 X116.734 Y114.892 E.0235
G1 X114.514 Y112.672 E.11379
G1 X114.514 Y113.32 E.0235
G1 X116.734 Y115.54 E.11378
G1 X116.734 Y116.188 E.0235
G1 X114.514 Y113.969 E.11378
G1 X114.514 Y114.617 E.0235
G1 X116.734 Y116.837 E.11377
G1 X116.734 Y117.485 E.0235
G1 X114.514 Y115.265 E.11377
G1 X114.514 Y115.914 E.0235
G1 X116.734 Y118.133 E.11377
G1 X116.733 Y118.782 E.0235
G1 X114.514 Y116.562 E.11376
G1 X114.514 Y117.211 E.0235
G1 X116.733 Y119.43 E.11376
G1 X116.733 Y120.078 E.0235
G1 X114.514 Y117.859 E.11375
G1 X114.514 Y118.507 E.0235
G1 X116.733 Y120.727 E.11375
G1 X116.733 Y121.375 E.0235
G1 X114.514 Y119.156 E.11374
G1 X114.514 Y119.804 E.0235
G1 X116.733 Y122.023 E.11374
G1 X116.733 Y122.672 E.0235
G1 X114.514 Y120.453 E.11374
G1 X114.514 Y121.101 E.0235
G1 X116.733 Y123.32 E.11373
G1 X116.732 Y123.968 E.0235
G1 X114.514 Y121.75 E.11373
G1 X114.514 Y122.398 E.0235
G1 X116.732 Y124.617 E.11372
G1 X116.732 Y125.265 E.0235
G1 X114.514 Y123.046 E.11372
G1 X114.513 Y123.695 E.0235
G1 X116.732 Y125.913 E.11372
G1 X116.732 Y126.562 E.0235
G1 X114.513 Y124.343 E.11371
G1 X114.513 Y124.992 E.0235
